assets/img/icon-instagram.svg

<?xml version="1.0" encoding="UTF-8"?>
<svg width="24px" height="24px" viewBox="0 0 24 24" version="1.1" xmlns="http://www.w3.org/2000/svg" xmlns:xlink="http://www.w3.org/1999/xlink">
    <!-- Generator: Sketch 47.1 (45422) - http://www.bohemiancoding.com/sketch -->
    <title>icon-instagram</title>
    <desc>Created with Sketch.</desc>
    <defs>
        <path d="M11.9962381,0.807066667 C8.7382381,0.807066667 8.32971429,0.819955556 7.05019048,0.874444444 C5.77333333,0.9288 4.90128571,1.11808889 4.1382381,1.39488889 C3.34938095,1.68097778 2.68038095,2.06382222 2.01342857,2.68626667 C1.34652381,3.30875556 0.936333333,3.93315556 0.629809524,4.66942222 C0.333238095,5.3816 0.130428571,6.19551111 0.0721904762,7.38724444 C0.0138095238,8.58146667 0,8.96275556 0,12.0035556 C0,15.0443111 0.0138095238,15.4256 0.0721904762,16.6198222 C0.130428571,17.8115556 0.333238095,18.6254667 0.629809524,19.3376444 C0.936333333,20.0739111 1.34652381,20.6983111 2.01342857,21.3208 C2.68038095,21.9432444 3.34938095,22.3260889 4.1382381,22.6122222 C4.90128571,22.8889778 5.77333333,23.0782667 7.05019048,23.1326222 C8.32971429,23.1871111 8.7382381,23.2 11.9962381,23.2 C15.2541905,23.2 15.6627143,23.1871111 16.9422381,23.1326222 C18.2190952,23.0782667 19.0911429,22.8889778 19.8541905,22.6122222 C20.6430476,22.3260889 21.3120476,21.9432444 21.979,21.3208 C22.6459048,20.6983111 23.0560952,20.0739111 23.3626667,19.3376444 C23.6591905,18.6254667 23.862,17.8115556 23.9202381,16.6198222 C23.978619,15.4256 23.9924286,15.0443111 23.9924286,12.0035556 C23.9924286,8.96275556 23.978619,8.58146667 23.9202381,7.38724444 C23.862,6.19551111 23.6591905,5.3816 23.3626667,4.66942222 C23.0560952,3.93315556 22.6459048,3.30875556 21.979,2.68626667 C21.3120476,2.06382222 20.6430476,1.68097778 19.8541905,1.39488889 C19.0911429,1.11808889 18.2190952,0.9288 16.9422381,0.874444444 C15.6627143,0.819955556 15.2541905,0.807066667 11.9962381,0.807066667 Z M11.9962381,2.82444444 C15.1993333,2.82444444 15.5787619,2.83586667 16.8437143,2.88973333 C18.0133333,2.93951111 18.6485238,3.12191111 19.0712381,3.27524444 C19.6311905,3.47835556 20.0308095,3.72097778 20.4505714,4.1128 C20.870381,4.50457778 21.1303333,4.87755556 21.3479524,5.40017778 C21.5122381,5.79471111 21.7076667,6.38755556 21.761,7.4792 C21.8187143,8.65982222 21.8309524,9.01395556 21.8309524,12.0035556 C21.8309524,14.9931111 21.8187143,15.3472444 21.761,16.5278667 C21.7076667,17.6195111 21.5122381,18.2123556 21.3479524,18.6068889 C21.1303333,19.1295111 20.870381,19.5024889 20.4505714,19.8942667 C20.0308095,20.2860889 19.6311905,20.5287111 19.0712381,20.7318222 C18.6485238,20.8851556 18.0133333,21.0675556 16.8437143,21.1173333 C15.5789524,21.1712 15.1995714,21.1826222 11.9962381,21.1826222 C8.79285714,21.1826222 8.41352381,21.1712 7.14871429,21.1173333 C5.97909524,21.0675556 5.34390476,20.8851556 4.92119048,20.7318222 C4.3612381,20.5287111 3.96161905,20.2860889 3.54185714,19.8942667 C3.12209524,19.5024889 2.86209524,19.1295111 2.64447619,18.6068889 C2.48019048,18.2123556 2.2847619,17.6195111 2.23142857,16.5278667 C2.17371429,15.3472444 2.16147619,14.9931111 2.16147619,12.0035556 C2.16147619,9.01395556 2.17371429,8.65982222 2.23142857,7.4792 C2.2847619,6.38755556 2.48019048,5.79471111 2.64447619,5.40017778 C2.86209524,4.87755556 3.12204762,4.50457778 3.54185714,4.1128 C3.96161905,3.72097778 4.3612381,3.47835556 4.92119048,3.27524444 C5.34390476,3.12191111 5.97909524,2.93951111 7.14871429,2.88973333 C8.41366667,2.83586667 8.79309524,2.82444444 11.9962381,2.82444444 L11.9962381,2.82444444 Z M11.9962381,15.7356889 C9.7877619,15.7356889 7.99747619,14.0647556 7.99747619,12.0035556 C7.99747619,9.94231111 9.7877619,8.27137778 11.9962381,8.27137778 C14.2046667,8.27137778 15.9949524,9.94231111 15.9949524,12.0035556 C15.9949524,14.0647556 14.2046667,15.7356889 11.9962381,15.7356889 Z M11.9962381,6.254 C15.3984286,6.254 18.1564286,8.82813333 18.1564286,12.0035556 C18.1564286,15.1789333 15.3984286,17.7530667 11.9962381,17.7530667 C8.594,17.7530667 5.836,15.1789333 5.836,12.0035556 C5.836,8.82813333 8.594,6.254 11.9962381,6.254 Z M19.839381,6.02684444 C19.839381,6.76888889 19.1948571,7.3704 18.3998095,7.3704 C17.6048095,7.3704 16.9602857,6.76888889 16.9602857,6.02684444 C16.9602857,5.2848 17.6048095,4.68324444 18.3998095,4.68324444 C19.1948571,4.68324444 19.839381,5.2848 19.839381,6.02684444 Z" id="path-1"></path>
    </defs>
    <g id="Page-1" stroke="none" stroke-width="1" fill="none" fill-rule="evenodd">
        <g id="design" transform="translate(-1254.000000, -1955.000000)">
            <g id="Web-Components/Footer" transform="translate(0.000000, 1629.000000)">
                <g id="Group-2" transform="translate(0.000000, 1.000000)">
                    <g id="Group-5" transform="translate(1141.000000, 325.000000)">
                        <g id="icon-instagram" transform="translate(113.000000, 0.000000)">
                            <mask id="mask-2" fill="white">
                                <use xlink:href="#path-1"></use>
                            </mask>
                            <use id="Fill-1" fill="#9A9A9A" xlink:href="#path-1"></use>
                        </g>
                    </g>
                </g>
            </g>
        </g>
    </g>
</svg>

<svg width="24" height="24" viewBox="0 0 24 24" xmlns="http://www.w3.org/2000/svg" xmlns:xlink="http://www.w3.org/1999/xlink"><title>icon-instagram</title><defs><path d="M11.996.807C8.738.807 8.33.82 7.05.874c-1.277.055-2.15.244-2.912.52-.79.287-1.458.67-2.125 1.292C1.347 3.31.936 3.933.63 4.67.333 5.38.13 6.195.072 7.386.014 8.58 0 8.963 0 12.004c0 3.04.014 3.422.072 4.616.058 1.192.26 2.005.558 2.718.306.736.717 1.36 1.383 1.983.667.623 1.336 1.006 2.125 1.292.763.277 1.635.466 2.912.52 1.28.055 1.688.068 4.946.068s3.667-.013 4.946-.067c1.277-.055 2.15-.244 2.912-.52.79-.287 1.458-.67 2.125-1.292.666-.622 1.076-1.246 1.383-1.982.296-.713.5-1.526.557-2.718.06-1.194.072-1.576.072-4.616 0-3.04-.013-3.423-.072-4.617-.058-1.19-.26-2.005-.557-2.718-.307-.737-.717-1.36-1.384-1.984-.668-.622-1.337-1.005-2.126-1.29-.763-.278-1.635-.467-2.912-.522-1.28-.054-1.688-.067-4.946-.067zm0 2.017c3.203 0 3.583.012 4.848.066 1.17.05 1.805.232 2.227.385.56.203.96.446 1.38.838.42.392.68.765.898 1.287.164.395.36.988.413 2.08.06 1.18.07 1.534.07 4.524s-.01 3.343-.07 4.524c-.052 1.092-.248 1.684-.412 2.08-.218.522-.478.894-.897 1.286-.42.392-.82.635-1.38.838-.42.153-1.057.336-2.226.385-1.265.054-1.644.066-4.848.066-3.203 0-3.582-.012-4.847-.066-1.17-.05-1.806-.232-2.23-.385-.56-.203-.958-.446-1.378-.838-.42-.392-.68-.764-.898-1.287-.164-.395-.36-.987-.413-2.08-.056-1.18-.07-1.534-.07-4.523 0-2.99.014-3.344.07-4.525.055-1.092.25-1.685.414-2.08.218-.522.478-.895.898-1.287.42-.392.82-.635 1.38-.838.422-.153 1.057-.335 2.227-.385 1.264-.054 1.643-.066 4.846-.066zm0 12.912c-2.208 0-4-1.67-4-3.732 0-2.062 1.792-3.733 4-3.733 2.21 0 4 1.672 4 3.734 0 2.06-1.79 3.732-4 3.732zm0-9.482c3.402 0 6.16 2.574 6.16 5.75 0 3.175-2.758 5.75-6.16 5.75s-6.16-2.575-6.16-5.75c0-3.176 2.758-5.75 6.16-5.75zm7.843-.227c0 .742-.645 1.343-1.44 1.343-.795 0-1.44-.6-1.44-1.343 0-.742.645-1.344 1.44-1.344.795 0 1.44.602 1.44 1.344z" id="a"/></defs><use fill="#9A9A9A" xlink:href="#a" fill-rule="evenodd"/></svg>
